X: 14042
T: JERRY BERGER'S JIG
C: Bob McQuillen 8 July'08
B: Bob's Note Book 14 #42
%R: jig
%D:2008
Z: 2020 John Chambers <jc:trillian.mit.edu>
M: 6/8
L: 1/8
K: D
A \
| dBA BdB | AFD E2F | DFA AFA | Bdf efg |\
| afd BdB | AFD E2F | DFA AFA | Bdc d2 :|
|: A \
| BAF ABd | BAF A2B | ABd ede | faf e2a |\
| dBd afd | Bdf ede | fdB Aag | fdd d2 :|
%%begintext align
%% Susanna Girardot lives in Seattle, and you
%% know what? So does Jerry Berger. And now,
%% guess what? They got married! Yep. Great stuff.
%% And Jerry's so nice, I thought ne needed this tune.
%% Maybe some day, Susanne will call a dance to it.
%% Wouldn't that be fun?
%%endtext

%%sep 1 1 500

%%sep 1 1 500

